src/dsmComponents/Icons/location-settings-16px.svg

<?xml version="1.0" encoding="UTF-8"?>
<svg width="16px" height="16px" viewBox="0 0 16 16" version="1.1" xmlns="http://www.w3.org/2000/svg" xmlns:xlink="http://www.w3.org/1999/xlink">
    <!-- Generator: Sketch 59.1 (86144) - https://sketch.com -->
    <title>location-settings-16px</title>
    <desc>Created with Sketch.</desc>
    <defs>
        <path d="M12.5,8 L12.9,9.2 C13.1,9.25 13.3,9.3 13.45,9.4 L13.45,9.4 L14.5,8.85 L15.2,9.55 L14.65,10.6 C14.75,10.75 14.8,10.95 14.85,11.1 L14.85,11.1 L16,11.5 L16,12.5 L14.85,12.9 C14.8,13.1 14.75,13.3 14.65,13.45 L14.65,13.45 L15.2,14.5 L14.5,15.2 L13.45,14.65 C13.25,14.7 13.1,14.8 12.9,14.85 L12.9,14.85 L12.5,16 L11.5,16 L11.1,14.85 C10.9,14.8 10.7,14.75 10.55,14.65 L10.55,14.65 L9.5,15.2 L8.8,14.5 L9.35,13.45 C9.3,13.25 9.2,13.1 9.15,12.9 L9.15,12.9 L8,12.5 L8,11.5 L9.15,11.1 C9.2,10.95 9.25,10.75 9.35,10.6 L9.35,10.6 L8.8,9.55 L9.55,8.8 L10.6,9.35 C10.75,9.25 10.95,9.2 11.1,9.15 L11.1,9.15 L11.5,8 L12.5,8 Z M6,0 C8.94933333,0 12,2.244 12,6 C12,6.21666667 11.9793333,6.44066667 11.9413333,6.66933333 C9.02333333,6.70133333 6.66666667,9.074 6.66666667,12 C6.66666667,12.8433333 6.868,13.638 7.216,14.3466667 C6.808,14.7953333 6.52133333,15.088 6.47333333,15.1366667 C6.348,15.2626667 6.178,15.3333333 6,15.3333333 C5.822,15.3333333 5.652,15.2626667 5.52666667,15.1366667 C5.30133333,14.9086667 0,9.526 0,6 C0,2.244 3.05066667,0 6,0 Z M12,10.5 C11.15,10.5 10.5,11.15 10.5,12 C10.5,12.85 11.15,13.5 12,13.5 C12.85,13.5 13.5,12.85 13.5,12 C13.5,11.15 12.85,10.5 12,10.5 Z M6,4 C4.89533333,4 4,4.89533333 4,6 C4,7.10466667 4.89533333,8 6,8 C7.10466667,8 8,7.10466667 8,6 C8,4.89533333 7.10466667,4 6,4 Z" id="path-1"></path>
    </defs>
    <g id="Final" stroke="none" stroke-width="1" fill="none" fill-rule="evenodd">
        <g id="All-Nucleo-Icons" transform="translate(-319.000000, -4508.000000)">
            <g id="Solo/Nucleo/16px/location-settings" transform="translate(315.000000, 4504.000000)">
                <g id="map-engine" transform="translate(4.000000, 4.000000)">
                    <g id="Colour/Default-Colour">
                        <mask id="mask-2" fill="white">
                            <use xlink:href="#path-1"></use>
                        </mask>
                        <g id="Mask" fill-rule="nonzero"></g>
                        <g id="colour/neutral/chia" mask="url(#mask-2)" fill="#737373">
                            <g transform="translate(-24.000000, -24.000000)" id="Colour">
                                <rect x="0" y="0" width="64" height="64"></rect>
                            </g>
                        </g>
                    </g>
                </g>
            </g>
        </g>
    </g>
</svg>

<svg width="16" height="16" xmlns="http://www.w3.org/2000/svg" xmlns:xlink="http://www.w3.org/1999/xlink"><defs><path d="M12.5 8l.4 1.2c.2.05.4.1.55.2l1.05-.55.7.7-.55 1.05c.1.15.15.35.2.5l1.15.4v1l-1.15.4c-.05.2-.1.4-.2.55l.55 1.05-.7.7-1.05-.55c-.2.05-.35.15-.55.2L12.5 16h-1l-.4-1.15c-.2-.05-.4-.1-.55-.2l-1.05.55-.7-.7.55-1.05c-.05-.2-.15-.35-.2-.55L8 12.5v-1l1.15-.4c.05-.15.1-.35.2-.5L8.8 9.55l.75-.75 1.05.55c.15-.1.35-.15.5-.2L11.5 8h1zM6 0c2.95 0 6 2.244 6 6 0 .217-.02.44-.059.67A5.332 5.332 0 006.667 12c0 .843.201 1.638.549 2.347-.408.448-.695.741-.743.79a.667.667 0 01-.946 0C5.3 14.909 0 9.526 0 6c0-3.756 3.05-6 6-6zm6 10.5c-.85 0-1.5.65-1.5 1.5s.65 1.5 1.5 1.5 1.5-.65 1.5-1.5-.65-1.5-1.5-1.5zM6 4a2 2 0 100 4 2 2 0 000-4z" id="location-settings-16px_svg__a"/></defs><use fill="#737373" xlink:href="#location-settings-16px_svg__a" fill-rule="evenodd"/></svg>
